X:1
T:Mrs. Macintyre’s Strathspey
M:C|
L:1/8
R:Strathspey
B:MacIntyre  –  Collection of Slow Airs, Reels & Strathspeys (1794, p. 27)
Z:AK/Fiddler’s Companion
K:F
f|!Coda!TF>GA>F c>FA>f|a/g/f/ f>F {FG}A>GGA|TF>GA>F c>FA>f|
a/g/f/e/ f>d c<AA:||c|Tf>gf>d c<af>c|d<fc>A AGGc|
{g}f/e/f/g/ a/g/f/e/ f>cd<f|c<ff>d c<aa>g|f<ad<f c<fA<f|
a/g/f/e/ f>F {FG}A>GGA|TF>GA>c d>ef>g|a/g/f/e/ f>d c<AA<f!Coda!||

